static/logos/notion-glyph-color.svg

<svg width="50" height="50" viewBox="0 0 50 50" fill="none" xmlns="http://www.w3.org/2000/svg">
<path fill-rule="evenodd" clip-rule="evenodd" d="M9.36907 8.89811C10.9162 10.1551 11.4966 10.0592 14.4019 9.86534L41.7914 8.22073C42.3723 8.22073 41.8893 7.64121 41.6955 7.54492L37.1467 4.25647C36.2751 3.57978 35.1139 2.80484 32.8883 2.9987L6.36706 4.93307C5.39983 5.02897 5.20665 5.51259 5.59182 5.90021L9.36907 8.89811ZM11.0135 15.2812V44.0997C11.0135 45.6485 11.7875 46.228 13.5294 46.1321L43.6305 44.3904C45.3733 44.2946 45.5675 43.2293 45.5675 41.9711V13.346C45.5675 12.0899 45.0843 11.4125 44.0174 11.5092L12.5615 13.346C11.4006 13.4435 11.0134 14.0242 11.0134 15.2812H11.0135ZM40.7292 16.8271C40.9221 17.6983 40.7291 18.5688 39.8563 18.6667L38.406 18.9557V40.2314C37.1467 40.9082 35.9855 41.2951 35.0179 41.2951C33.4687 41.2951 33.0807 40.8112 31.9203 39.3614L22.4335 24.4683V38.8778L25.4355 39.5552C25.4355 39.5552 25.4355 41.2951 23.0135 41.2951L16.3366 41.6824C16.1427 41.2951 16.3366 40.3288 17.0139 40.1353L18.7563 39.6523V20.6002L16.3371 20.4064C16.143 19.5351 16.6263 18.2789 17.9823 18.1815L25.1451 17.6986L35.0179 32.7856V19.4392L32.5007 19.1504C32.3075 18.0853 33.0807 17.3119 34.0487 17.216L40.7292 16.8271ZM4.14029 2.3221L31.7266 0.290556C35.1143 1.38435e-05 35.9859 0.194655 38.1151 1.74131L46.9211 7.93058C48.3741 8.99489 48.8584 9.28465 48.8584 10.4449V44.3904C48.8584 46.5178 48.0833 47.776 45.3738 47.9685L13.3377 49.903C11.3037 50 10.3357 49.7102 9.27053 48.3554L2.78573 39.9417C1.62385 38.3929 1.14062 37.2343 1.14062 35.8787V5.70566C1.14062 3.96593 1.91586 2.51469 4.14029 2.3221V2.3221Z" fill="black"/>
</svg>

<svg xmlns="http://www.w3.org/2000/svg" width="64" height="64" fill="none" viewBox="0 0 50 50"><path fill="#000" fill-rule="evenodd" d="M9.37 8.898c1.546 1.257 2.127 1.161 5.032.967l27.39-1.644c.58 0 .097-.58-.096-.676l-4.55-3.289c-.87-.676-2.032-1.451-4.258-1.257L6.368 4.933c-.968.096-1.161.58-.776.967l3.777 2.998Zm1.644 6.383V44.1c0 1.548.774 2.128 2.515 2.032L43.63 44.39c1.743-.095 1.938-1.16 1.938-2.419V13.346c0-1.256-.484-1.934-1.55-1.837l-31.456 1.837c-1.161.098-1.549.678-1.549 1.935Zm29.715 1.546c.193.871 0 1.742-.873 1.84l-1.45.289V40.23c-1.26.677-2.42 1.064-3.388 1.064-1.55 0-1.937-.484-3.098-1.934l-9.487-14.893v14.41l3.003.677s0 1.74-2.422 1.74l-6.677.387c-.194-.387 0-1.353.677-1.547l1.742-.483V20.6l-2.419-.194c-.194-.87.29-2.127 1.645-2.224l7.163-.483 9.873 15.087V19.439L32.5 19.15c-.194-1.065.58-1.838 1.548-1.934l6.68-.389ZM4.14 2.322 31.727.291C35.114 0 35.986.195 38.115 1.74l8.806 6.19c1.453 1.064 1.937 1.354 1.937 2.514V44.39c0 2.128-.775 3.386-3.484 3.578l-32.036 1.935c-2.034.097-3.002-.193-4.067-1.548l-6.485-8.413c-1.162-1.55-1.645-2.708-1.645-4.063V5.706c0-1.74.775-3.191 3-3.384Z" clip-rule="evenodd"/></svg>
